X:56
T:The Turnpike Gate                                                                                 
M:4/4                                                                                               
L:1/8                                                                                               
K:G                                                                                                 
DEGA |:B3 G AABA|GEEE cEGE|\                                                                        
L:1/16                                                                                              
D2G2BAG2 A3 B2A2|\                                                                                  
L:1/8                                                                                               
GEED EFGA|                                                                                          
B B2 G A2 BA|GEEE cEGE|DGB/A/G AcBA|GEDG EGGA :|                                                    
B/A/GBd efge|dBBe dBAB|GABd efge|dBAG EGGA|                                                         
G2 Bd efge|dB (3BdB dega|bgag efga|gedB (3ABA GA :|
